public/svgs/aboutus/pause.svg

<svg width="30" height="36" viewBox="0 0 30 36" fill="none" xmlns="http://www.w3.org/2000/svg">
<g filter="url(#filter0_d_3821_1690)">
<path d="M24 18L6.82692 28.8554L5 30V6L24 18ZM20.5288 18L6.82692 9.32308V26.6769L20.5288 18Z" fill="#F2DD7C"/>
<path d="M5.2666 5.57715L24.2666 17.5771L24.9365 18L24.2676 18.4229L7.09375 29.2783L7.09277 29.2793L5.26562 30.4238L4.5 30.9033V5.09277L5.2666 5.57715ZM7.32715 25.7686L19.5938 18L7.32715 10.2305V25.7686Z" stroke="#F2DD7C"/>
</g>
<defs>
<filter id="filter0_d_3821_1690" x="0" y="0.185669" width="29.873" height="35.6209" filterUnits="userSpaceOnUse" color-interpolation-filters="sRGB">
<feFlood flood-opacity="0" result="BackgroundImageFix"/>
<feColorMatrix in="SourceAlpha" type="matrix" values="0 0 0 0 0 0 0 0 0 0 0 0 0 0 0 0 0 0 127 0" result="hardAlpha"/>
<feOffset/>
<feGaussianBlur stdDeviation="2"/>
<feComposite in2="hardAlpha" operator="out"/>
<feColorMatrix type="matrix" values="0 0 0 0 0.94902 0 0 0 0 0.866667 0 0 0 0 0.486275 0 0 0 0.25 0"/>
<feBlend mode="normal" in2="BackgroundImageFix" result="effect1_dropShadow_3821_1690"/>
<feBlend mode="normal" in="SourceGraphic" in2="effect1_dropShadow_3821_1690" result="shape"/>
</filter>
</defs>
</svg>

<svg xmlns="http://www.w3.org/2000/svg" width="30" height="36" fill="none" viewBox="0 0 30 36"><g filter="url(#a)"><path fill="#f2dd7c" d="M24 18 6.827 28.855 5 30V6zm-3.471 0L6.827 9.323v17.354z"/><path stroke="#f2dd7c" d="m5.267 5.577 19 12 .67.423-.67.423L7.095 29.278l-.001.001-1.827 1.145-.766.48V5.092zm2.06 20.192L19.594 18 7.327 10.23z"/></g><defs><filter id="a" width="29.873" height="35.621" x="0" y=".186" color-interpolation-filters="sRGB" filterUnits="userSpaceOnUse"><feFlood flood-opacity="0" result="BackgroundImageFix"/><feColorMatrix in="SourceAlpha" result="hardAlpha" values="0 0 0 0 0 0 0 0 0 0 0 0 0 0 0 0 0 0 127 0"/><feOffset/><feGaussianBlur stdDeviation="2"/><feComposite in2="hardAlpha" operator="out"/><feColorMatrix values="0 0 0 0 0.94902 0 0 0 0 0.866667 0 0 0 0 0.486275 0 0 0 0.25 0"/><feBlend in2="BackgroundImageFix" result="effect1_dropShadow_3821_1690"/><feBlend in="SourceGraphic" in2="effect1_dropShadow_3821_1690" result="shape"/></filter></defs></svg>
